X: 1
T: Dunphy's
M: 4/4
L: 1/8
R: hornpipe
K: Gmaj
(3DEF|GDBD G2 (3GBg|f2ed ecAG|(3FAF DE FGAc|(3BAG AF GFED|
GDBD G2 (3GBg|f2ed ecAG|FGdB cAFG|(3ABA GF G2:|
|:Bc|dcBd gdBd|(3gfg af gdBf|g2 (3fgf ed^cd|(3efe d^c d2 (3def|
g2dc (3BdB (3GAB|(3cdc (3ABA (3FAF DF|GBdB cAFG|(3ABA GF G2:|
